assets/svg/2195.svg

<svg xmlns="http://www.w3.org/2000/svg" viewBox="0 0 64 64" enable-background="new 0 0 64 64"><path fill="#1b75bb" d="M63.793,56.915c0,3.802-3.076,6.882-6.876,6.882H6.874C3.079,63.797,0,60.717,0,56.915V6.878    C0,3.081,3.079,0,6.874,0h50.043c3.8,0,6.876,3.081,6.876,6.878V56.915z"/><path fill="#0867a3" d="m0 48.575v8.34c0 3.802 3.079 6.882 6.874 6.882h50.04c3.8 0 6.876-3.08 6.876-6.882v-50.04c-10.894 39.569-50.05 42.08-63.793 41.697"/><g fill="#fff"><path d="m18.803 44.33l13.14 15.11 13.05-15.1c-.165-2.108-1.577-3.754-3.297-3.754h-2.915v-13.692c0-2.304-1.869-4.173-4.174-4.173h-5.412c-2.305 0-4.172 1.869-4.172 4.173v13.693h-2.917c-1.714 0-3.125 1.642-3.296 3.746l0 0"/><path d="m18.803 19.464l13.14-15.11 13.04 15.1c-.165 2.108-1.577 3.754-3.297 3.754h-2.915v13.693c0 2.304-1.869 4.173-4.174 4.173h-5.412c-2.305 0-4.172-1.869-4.172-4.173v-13.693h-2.917c-1.714 0-3.125-1.642-3.296-3.746l0 0"/></g></svg>

<?xml version="1.0" encoding="UTF-8" standalone="no"?>
<!-- Generator: Adobe Illustrator 16.0.0, SVG Export Plug-In . SVG Version: 6.00 Build 0)  -->

<svg
   xmlns:dc="http://purl.org/dc/elements/1.1/"
   xmlns:cc="http://creativecommons.org/ns#"
   xmlns:rdf="http://www.w3.org/1999/02/22-rdf-syntax-ns#"
   xmlns:svg="http://www.w3.org/2000/svg"
   xmlns="http://www.w3.org/2000/svg"
   xmlns:sodipodi="http://sodipodi.sourceforge.net/DTD/sodipodi-0.dtd"
   xmlns:inkscape="http://www.inkscape.org/namespaces/inkscape"
   version="1.1"
   id="Layer_1"
   x="0px"
   y="0px"
   width="64px"
   height="64px"
   viewBox="0 0 64 64"
   enable-background="new 0 0 64 64"
   xml:space="preserve"
   inkscape:version="0.48.5 r10040"
   sodipodi:docname="2195.svg"
   inkscape:export-filename="D:\TESTINGEMOJI\SVGTEST\2195.png"
   inkscape:export-xdpi="90"
   inkscape:export-ydpi="90"><metadata
   id="metadata3681"><rdf:RDF><cc:Work
       rdf:about=""><dc:format>image/svg+xml</dc:format><dc:type
         rdf:resource="http://purl.org/dc/dcmitype/StillImage" /><dc:title></dc:title></cc:Work></rdf:RDF></metadata><defs
   id="defs3679" /><sodipodi:namedview
   pagecolor="#ffffff"
   bordercolor="#666666"
   borderopacity="1"
   objecttolerance="10"
   gridtolerance="10"
   guidetolerance="10"
   inkscape:pageopacity="0"
   inkscape:pageshadow="2"
   inkscape:window-width="640"
   inkscape:window-height="480"
   id="namedview3677"
   showgrid="false"
   inkscape:zoom="3.6875"
   inkscape:cx="32"
   inkscape:cy="32"
   inkscape:window-x="760"
   inkscape:window-y="410"
   inkscape:window-maximized="0"
   inkscape:current-layer="Layer_1" />
<g
   id="g3665">
	<g
   id="g3667">
		<path
   fill="#1B75BB"
   d="M63.793,56.915c0,3.802-3.076,6.882-6.876,6.882H6.874C3.079,63.797,0,60.717,0,56.915V6.878    C0,3.081,3.079,0,6.874,0h50.043c3.8,0,6.876,3.081,6.876,6.878V56.915z"
   id="path3669" />
		<path
   fill="#0867A3"
   d="M0,48.575v8.34c0,3.802,3.079,6.882,6.874,6.882h50.043c3.8,0,6.876-3.08,6.876-6.882V6.878    C52.899,46.447,13.74,48.956,0,48.575z"
   id="path3671" />
	</g>
	<path
   fill="#FFFFFF"
   d="M18.803,44.329l13.138,15.108l13.045-15.101c-0.165-2.108-1.577-3.754-3.297-3.754h-2.915V26.89   c0-2.304-1.869-4.173-4.174-4.173h-5.412c-2.305,0-4.172,1.869-4.172,4.173v13.693h-2.917   C20.385,40.583,18.974,42.225,18.803,44.329L18.803,44.329z"
   id="path3673" />
	<path
   fill="#FFFFFF"
   d="M18.803,19.464L31.941,4.356l13.045,15.1c-0.165,2.108-1.577,3.754-3.297,3.754h-2.915v13.693   c0,2.304-1.869,4.173-4.174,4.173h-5.412c-2.305,0-4.172-1.869-4.172-4.173V23.21h-2.917C20.385,23.21,18.974,21.568,18.803,19.464   L18.803,19.464z"
   id="path3675" />
</g>
</svg>
